symbolic/22x22/places/folder-deeporange-pictures-open.svg

<svg xmlns="http://www.w3.org/2000/svg" width="22" height="22" version="1"><rect style="opacity:.2" width="20" height="12" x="1" y="8.5" rx="1" ry="1"/><path style="fill:#e95420" d="M1 16c0 .554.446 1 1 1h18c.554 0 1-.446 1-1V5c0-.554-.446-1-1-1h-9C9.5 4 9 2 7.5 2H2c-.554 0-1 .446-1 1"/><rect style="opacity:.2" width="20" height="10" x="1" y="9.5" rx="1" ry="1"/><rect style="fill:#e4e4e4" width="16" height="8" x="3" y="6" rx="1" ry="1"/><rect style="fill:#eb6637" width="20" height="10" x="1" y="10" rx="1" ry="1"/><path style="opacity:.1;fill:#fff" d="M2 2c-.554 0-1 .446-1 1v.5c0-.554.446-1 1-1h5.5c1.5 0 2 2 3.5 2h9c.554 0 1 .446 1 1V5c0-.554-.446-1-1-1h-9C9.5 4 9 2 7.5 2z"/><path style="fill:#522413" d="M8.5 12c-.5 0-.5.5-.5.5v5c0 .5.5.5.5.5h6s.5 0 .5-.5v-5c0-.5-.5-.5-.5-.5zm3.5 4 1-1.22L14 16v1H9v-1.5l1.25-1.25z"/></svg>

<svg xmlns="http://www.w3.org/2000/svg" width="22" height="22" version="1">
 <rect style="opacity:0.2" width="20" height="12" x="1" y="8.5" rx="1" ry="1"/>
 <path style="fill:#e95420" d="M 1,16 C 1,16.554 1.446,17 2,17 H 20 C 20.554,17 21,16.554 21,16 V 5 C 21,4.446 20.554,4 20,4 H 11 C 9.5,4 9,2 7.5,2 H 2 C 1.446,2 1,2.446 1,3"/>
 <rect style="opacity:0.2" width="20" height="10" x="1" y="9.5" rx="1" ry="1"/>
 <rect style="fill:#e4e4e4" width="16" height="8" x="3" y="6" rx="1" ry="1"/>
 <rect style="fill:#eb6637" width="20" height="10" x="1" y="10" rx="1" ry="1"/>
 <path style="opacity:0.1;fill:#ffffff" d="M 2,2 C 1.446,2 1,2.446 1,3 V 3.5 C 1,2.946 1.446,2.5 2,2.5 H 7.5 C 9,2.5 9.5,4.5 11,4.5 H 20 C 20.554,4.5 21,4.946 21,5.5 V 5 C 21,4.446 20.554,4 20,4 H 11 C 9.5,4 9,2 7.5,2 Z"/>
 <path style="fill:#522413" d="M 8.5,12 C 8,12 8,12.5 8,12.5 V 17.5 C 8,18 8.5,18 8.5,18 H 14.5 C 14.5,18 15,18 15,17.5 V 12.5 C 15,12 14.5,12 14.5,12 Z M 12,16 13,14.78 14,16 V 17 H 9 V 15.5 L 10.25,14.25 Z"/>
</svg>
